X: 14654
T: Gan Ainm
R: polka
M: 2/4
K: Gmajor
|:DG GB|AG E/F/G/E/|DG GB|AG d2|
e/f/g/e/ d/e/d/B/|A/B/A/G/ E/F/G/E/|DG AG/A/|1 BG G>E:|2 BG Ge||
|:dB Ge|dB Ge|dB GB/d/|eg g2|
e/f/g/e/ d/e/d/B/|A/B/A/G/ E/F/G/E/|DG AG/A/|1 BG Ge:|2 BG G>E||

